icons/Earthicons.svg

<svg width="48" height="48" viewBox="0 0 48 48" fill="none" xmlns="http://www.w3.org/2000/svg">
<path d="M9.92908 7.62404C13.6254 4.24676 18.4567 2.38433 23.4627 2.40688C27.7313 2.29904 31.936 3.45967 35.5452 5.74205C39.1545 8.02443 42.0062 11.3261 43.74 15.2296C45.4737 19.1331 46.0116 23.4632 45.2856 27.6725C44.5596 31.8818 42.6024 35.7812 39.6613 38.8779C36.7202 41.9745 32.9273 44.1293 28.7622 45.0699C24.5971 46.0104 20.2468 45.6944 16.2611 44.1619C12.2755 42.6294 8.83354 39.9492 6.37043 36.46C3.90731 32.9709 2.53362 28.8295 2.42302 24.5595C2.20088 19.9524 3.59125 15.4119 6.35477 11.7197" stroke="#3D3D3D" stroke-width="0.75" stroke-linecap="round" stroke-linejoin="round"/>
<path d="M3.30035 19.2936C5.53759 20.1892 7.51887 21.6241 9.068 23.4706L9.26296 23.7143C10.4077 25.2047 10.9838 27.0545 10.8876 28.9315C10.8013 30.4993 10.8612 32.0718 11.0664 33.6286C11.328 36.6566 11.9946 39.6358 13.0485 42.4864C13.8717 42.9906 14.7295 43.4359 15.6155 43.8191C16.5253 41.4299 16.9965 37.8868 19.1736 36.4891C19.8106 36.0584 20.4185 35.586 20.9932 35.0751L21.4156 34.6687C21.945 34.1647 22.3665 33.5584 22.6546 32.8864C22.9426 32.2145 23.0911 31.491 23.0911 30.7599C23.0911 30.0288 22.9426 29.3054 22.6546 28.6334C22.3665 27.9615 21.945 27.3551 21.4156 26.8511C19.3685 24.9983 17.2727 25.2259 14.5107 23.243L14.007 22.8367C13.7215 22.6089 13.494 22.3165 13.3434 21.9837C13.1928 21.6508 13.1234 21.2869 13.1409 20.9219C13.1583 20.5569 13.2621 20.2013 13.4438 19.8843C13.6254 19.5673 13.8797 19.298 14.1858 19.0985C15.0679 18.5555 15.8668 17.8876 16.5578 17.1157C17.1508 16.3169 17.47 15.3477 17.4676 14.3527C16.639 11.346 10.9689 8.1279 9.97782 7.59155" stroke="#3D3D3D" stroke-width="0.75" stroke-linecap="round" stroke-linejoin="round"/>
<path d="M40.3107 37.7893C39.6348 37.1098 39.2255 36.21 39.1572 35.2538C39.1452 34.052 39.2267 32.8511 39.4009 31.6619V31.4994C39.4201 30.5286 39.1746 29.5709 38.6909 28.7291C38.2071 27.8873 37.5034 27.1931 36.6552 26.7211L36.119 26.4123C33.7957 25.047 32.6422 24.3644 31.9761 23.1617C31.788 22.792 31.6514 22.3983 31.5699 21.9915C31.329 20.6752 31.5934 19.3165 32.3102 18.1866C33.027 17.0568 34.1435 16.239 35.4367 15.8967C36.074 15.6789 36.7565 15.6286 37.4188 15.7504C38.7835 16.0592 39.6121 17.1157 41.5455 17.2294C42.3636 17.2606 43.18 17.1337 43.95 16.8556" stroke="#3D3D3D" stroke-width="0.75" stroke-linecap="round" stroke-linejoin="round"/>
<path d="M28.678 2.7482C27.0533 4.63353 28.0769 8.30666 26.6471 10.257C25.0224 12.5324 24.6 15.1328 26.5659 15.9617C29.1004 17.0832 31.31 12.7112 33.7308 11.4922C34.9493 10.8746 37.695 11.0371 41.5618 11.3947" stroke="#3D3D3D" stroke-width="0.75" stroke-linecap="round" stroke-linejoin="round"/>
<path d="M16.0866 4.63353C16.8285 6.12952 17.8423 7.47432 19.0761 8.59921C19.8397 9.26558 20.3271 9.0868 21.2856 7.99786C21.8543 7.34775 21.5293 6.60012 21.7893 5.59244C22.1747 4.39821 22.9838 3.38645 24.0639 2.7482" stroke="#3D3D3D" stroke-width="0.75" stroke-linecap="round" stroke-linejoin="round"/>
</svg>

<svg xmlns="http://www.w3.org/2000/svg" width="16" height="16" fill="currentColor" class="si si-Earthicons" viewBox="0 0 16 16">
  <path stroke="#3D3D3D" stroke-linecap="round" stroke-linejoin="round" stroke-width=".75" d="M9.93 7.624a19.93 19.93 0 0 1 13.533-5.217A21.59 21.59 0 0 1 43.74 15.23a21.61 21.61 0 0 1-4.079 23.648 21.59 21.59 0 0 1-23.4 5.284A21.59 21.59 0 0 1 2.423 24.56a19.83 19.83 0 0 1 3.932-12.84"/>
  <path stroke="#3D3D3D" stroke-linecap="round" stroke-linejoin="round" stroke-width=".75" d="M3.3 19.294a14.6 14.6 0 0 1 5.768 4.177l.195.243a7.9 7.9 0 0 1 1.625 5.218 25.3 25.3 0 0 0 .178 4.697 34 34 0 0 0 1.983 8.857q1.236.758 2.567 1.333c.91-2.39 1.38-5.932 3.558-7.33a17.5 17.5 0 0 0 1.82-1.414l.422-.406a5.397 5.397 0 0 0 0-7.818c-2.047-1.853-4.143-1.625-6.905-3.608l-.504-.406a2.31 2.31 0 0 1 .179-3.738 10.7 10.7 0 0 0 2.372-1.983 4.6 4.6 0 0 0 .91-2.763c-.829-3.007-6.5-6.225-7.49-6.761M40.31 37.79a4 4 0 0 1-1.153-2.536c-.012-1.202.07-2.403.244-3.592v-.163a5.35 5.35 0 0 0-2.746-4.778l-.536-.309c-2.323-1.365-3.477-2.048-4.143-3.25a4.6 4.6 0 0 1-.406-1.17 5.316 5.316 0 0 1 3.867-6.095 3.93 3.93 0 0 1 1.982-.147c1.364.31 2.193 1.366 4.127 1.48a6.4 6.4 0 0 0 2.404-.374M28.678 2.748c-1.625 1.886-.601 5.559-2.03 7.509-1.626 2.275-2.048 4.876-.082 5.705 2.534 1.121 4.744-3.25 7.165-4.47 1.218-.617 3.964-.455 7.83-.097M16.087 4.634a13.5 13.5 0 0 0 2.99 3.965c.763.667 1.25.488 2.209-.601.568-.65.243-1.398.503-2.406a5.14 5.14 0 0 1 2.275-2.844"/>
</svg>
